images/logo.svg

<?xml version="1.0" encoding="UTF-8" standalone="no"?>
<!-- Created with Inkscape (http://www.inkscape.org/) -->

<svg
   width="200"
   height="25"
   viewBox="0 0 52.916665 6.6145835"
   version="1.1"
   id="svg1"
   xmlns="http://www.w3.org/2000/svg"
   xmlns:svg="http://www.w3.org/2000/svg">
  <defs
     id="defs1" />
  <g
     id="layer1">
    <path
       id="text1"
       style="font-size:14.0781px;font-family:Cantarell;-inkscape-font-specification:'Cantarell, @wght=300';font-variation-settings:'wght' 300;fill:#214478;stroke-width:0.162265"
       d="M 4.3342148,0.07390332 V 6.454478 H 4.6711019 V 3.1581802 c 0.357781,-0.3830503 0.8426204,-0.6062701 1.3554719,-0.6062701 0.7597751,0 1.1913072,0.4490479 1.1913072,1.2347253 V 6.454478 H 7.5633251 V 3.7432169 c 0,-0.923818 -0.5526327,-1.5022066 -1.4505488,-1.5022066 -0.5327262,0 -1.039369,0.2195253 -1.4416744,0.5945443 V 0.07390332 Z m 39.9659822,0.4921781 c -0.172674,0 -0.284911,0.1122363 -0.284911,0.2849126 0,0.17267638 0.112237,0.28491208 0.284911,0.28491208 0.172676,0 0.284913,-0.1122357 0.284913,-0.28491208 0,-0.1726763 -0.112237,-0.2849126 -0.284913,-0.2849126 z M 1.9427265,2.2410103 C 0.75989455,2.2410103 -6.666667e-8,3.0957882 -6.666667e-8,4.4426621 -6.666667e-8,5.746367 0.69071103,6.54068 1.813106,6.54068 c 0.4403246,0 0.8981694,-0.120803 1.2521561,-0.328013 L 2.9872971,5.970856 C 2.6160429,6.160799 2.2277853,6.264325 1.8910662,6.264325 c -0.94108497,0 -1.53706722,-0.733822 -1.53706722,-1.8907519 0,-1.15693 0.58728075,-1.821663 1.58016852,-1.821663 0.3626199,0 0.7164881,0.086248 1.044573,0.2589243 l 0.09508,-0.276355 C 2.7112009,2.3359019 2.3398837,2.2410103 1.9427286,2.2410103 Z m 12.1761135,0 c -1.139659,0 -1.907866,0.8719616 -1.907866,2.1756641 0,1.2778006 0.742373,2.1240056 1.864765,2.1240056 1.131027,0 1.890753,-0.871961 1.890753,-2.175664 0,-1.2864332 -0.733893,-2.1240057 -1.847652,-2.1240057 z m 4.772199,0 c -0.546985,0 -1.053938,0.2117023 -1.434703,0.5625354 L 17.38852,2.3100994 H 17.129595 V 6.454478 H 17.47504 V 3.0982818 c 0.315368,-0.3315705 0.818171,-0.5463717 1.338041,-0.5463717 0.768409,0 1.20018,0.4490479 1.20018,1.2347253 V 6.454478 h 0.345445 V 3.7432169 c 0,-0.923818 -0.543846,-1.5022066 -1.467663,-1.5022066 z m 4.696773,0 c -1.139661,0 -1.908183,0.8719589 -1.908183,2.1756641 0,1.2778046 0.742372,2.1240056 1.864763,2.1240056 1.13103,0 1.891073,-0.871959 1.891073,-2.175664 0,-1.286437 -0.733887,-2.1240057 -1.847653,-2.1240057 z m 4.990241,0 c -0.520031,0 -1.020227,0.2013336 -1.415689,0.5463724 l -0.0694,-0.4772833 H 26.834039 V 6.454478 h 0.345442 V 3.0688082 c 0.36048,-0.3245581 0.825561,-0.5168981 1.303496,-0.5168981 0.733876,0 1.165638,0.4490479 1.165638,1.2347253 V 6.454478 h 0.345442 V 3.7432169 c 0,-0.2129137 -0.03183,-0.403288 -0.08557,-0.5752119 0.36849,-0.3873979 0.873067,-0.6160949 1.389062,-0.6160949 0.733875,0 1.165636,0.4490479 1.165636,1.2347253 V 6.454478 h 0.345449 V 3.7432169 c 0,-0.9410855 -0.552549,-1.5022066 -1.424564,-1.5022066 -0.584517,0 -1.149967,0.262588 -1.569396,0.7013464 C 29.587291,2.4959556 29.154512,2.2410103 28.578047,2.2410103 Z m 12.432817,0 c -0.546984,0 -1.05394,0.2117023 -1.434701,0.5625354 l -0.06783,-0.4934463 h -0.25892 V 6.454478 h 0.345442 V 3.0982818 c 0.315366,-0.3315705 0.818171,-0.5463717 1.338042,-0.5463717 0.768409,0 1.200183,0.4490479 1.200183,1.2347253 V 6.454478 h 0.345446 V 3.7432169 c 0,-0.923818 -0.543845,-1.5022066 -1.467666,-1.5022066 z m 6.794794,0 c -1.182834,0 -1.942726,0.8547779 -1.942726,2.2016518 0,1.3037049 0.690706,2.0980179 1.813108,2.0980179 0.440317,0 0.897848,-0.120803 1.251832,-0.328013 l -0.07764,-0.241811 c -0.371255,0.189943 -0.759829,0.293469 -1.096551,0.293469 -0.941084,0 -1.53675,-0.733822 -1.53675,-1.8907519 0,-1.15693 0.586964,-1.821663 1.579852,-1.821663 0.36262,0 0.716801,0.086248 1.044888,0.2589243 l 0.09476,-0.276355 C 48.57382,2.3359019 48.202817,2.2410103 47.805664,2.2410103 Z m 3.651885,0 c -0.483497,0 -1.027264,0.1468756 -1.47622,0.3799882 l 0.08621,0.2503679 c 0.414425,-0.1985769 0.880756,-0.3194563 1.303815,-0.3194563 0.777044,0 1.191302,0.38843 1.191302,1.1482054 v 0.434182 c -1.869645,0.01253 -2.719498,0.4087322 -2.719498,1.2752905 0,0.682072 0.526782,1.131092 1.338362,1.131092 0.565989,0 1.053749,-0.223587 1.38811,-0.614193 l 0.08811,0.527991 h 0.258927 V 3.6741279 c 0,-0.9151832 -0.53529,-1.4331176 -1.459104,-1.4331176 z m -40.673671,0.051975 c -0.512803,0 -0.9660461,0.2472205 -1.2515226,0.6715562 L 9.4886224,2.3101001 H 9.2037102 V 6.454479 H 9.5491546 V 3.2969925 C 9.8292335,2.8678376 10.271566,2.6124426 10.749335,2.6124426 c 0.146773,0 0.310618,0.025838 0.448761,0.077647 l 0.09508,-0.3023427 C 11.1464,2.3273069 10.965192,2.2929859 10.783883,2.2929859 Z m 23.587494,0.017117 V 5.021045 c 0,0.941086 0.569816,1.502523 1.424563,1.502523 0.503773,0 1.007092,-0.206155 1.409029,-0.545737 l 0.07606,0.47665 H 37.53139 V 2.3101024 H 37.185948 V 5.695454 c -0.363026,0.326435 -0.840083,0.525772 -1.294942,0.525772 -0.72524,0 -1.17419,-0.457604 -1.17419,-1.243281 V 2.3101024 Z m 9.747545,0 V 6.454481 h 0.34545 V 2.3101024 Z M 23.527282,2.551913 c 0.941084,0 1.562735,0.7337356 1.562735,1.8647643 0,1.1137607 -0.604282,1.8219797 -1.502205,1.8219797 -0.941083,0 -1.554181,-0.75132 -1.554181,-1.865081 0,-1.0878593 0.578464,-1.821663 1.493651,-1.821663 z m -9.507321,9.2e-4 v 0.2563891 h 0.137544 V 2.555079 c 0.293047,0.016566 0.552312,0.1068224 0.768217,0.2595584 l -0.100143,0.1736729 0.118846,0.068773 0.09065,-0.1568759 c 0.182999,0.1591694 0.328051,0.3690959 0.42816,0.6211655 l -0.277939,0.1603624 0.06877,0.1188449 0.256389,-0.1480021 c 0.06419,0.2019463 0.101591,0.4274549 0.10902,0.672824 h -0.224696 v 0.137544 h 0.22533 c -0.0038,0.2482569 -0.03778,0.4756359 -0.09888,0.6788459 l -0.267164,-0.154341 -0.06877,0.119162 0.290933,0.167968 c -0.09962,0.262409 -0.247592,0.47827 -0.435449,0.638595 l -0.10395,-0.180011 -0.118847,0.06878 0.112824,0.195858 C 14.713193,6.147418 14.451513,6.230632 14.15752,6.237395 V 5.979099 H 14.019975 V 6.235171 C 13.729545,6.218421 13.472973,6.12781 13.259365,5.975612 L 13.359508,5.801939 13.240663,5.733159 13.150333,5.88972 C 12.966532,5.728793 12.821203,5.516427 12.721215,5.263166 l 0.270968,-0.156559 -0.06878,-0.119162 -0.2491,0.143883 C 12.610583,4.929727 12.57354,4.705468 12.566233,4.4629408 h 0.216464 V 4.3254012 H 12.56529 c 0.0039,-0.2451202 0.03764,-0.4716503 0.09825,-0.6750423 l 0.259875,0.1502205 0.06878,-0.118845 -0.283962,-0.1638488 c 0.09692,-0.2579094 0.240559,-0.4731504 0.424673,-0.6341592 l 0.100144,0.173356 0.118845,-0.068772 -0.109654,-0.1904695 C 13.458509,2.6456077 13.720663,2.5596782 14.01996,2.5528602 Z m 0.02219,0.9101976 V 4.1399747 A 0.26014298,0.26014298 0 0 0 13.828546,4.3906589 0.26014298,0.26014298 0 0 0 14.088738,4.650851 0.26014298,0.26014298 0 0 0 14.25829,4.587465 l 0.78343,0.783429 0.04532,-0.04533 -0.785968,-0.7856456 A 0.26014298,0.26014298 0 0 0 14.348926,4.3906461 0.26014298,0.26014298 0 0 0 14.135321,4.1399617 V 3.4630583 Z m 38.520505,0.920973 V 5.625384 c -0.348502,0.395289 -0.77835,0.613243 -1.277823,0.613243 -0.664809,0 -1.096232,-0.345428 -1.096232,-0.880724 0,-0.669757 0.721468,-0.9634602 2.374055,-0.9738994 z" />
  </g>
</svg>

<?xml version="1.0" encoding="UTF-8" standalone="no"?>
<!-- Created with Inkscape (http://www.inkscape.org/) -->

<svg
   width="200"
   height="25"
   viewBox="0 0 52.916665 6.6145835"
   version="1.1"
   id="svg1"
   xmlns="http://www.w3.org/2000/svg"
   xmlns:svg="http://www.w3.org/2000/svg">
  <defs
     id="defs1" />
  <path
     id="text1"
     style="font-size:14.0781px;font-family:Cantarell;-inkscape-font-specification:'Cantarell, @wght=300';font-variation-settings:'wght' 300;fill:#9c0510;stroke-width:0.162265;fill-opacity:1"
     d="M 4.3341024 0.073897298 L 4.3341024 6.4543864 L 4.6710327 6.4543864 L 4.6710327 3.1579468 C 5.0288133 2.7748969 5.5136545 2.5517822 6.0265055 2.5517822 C 6.7862799 2.5517822 7.2176473 3.0011723 7.2176473 3.7868489 L 7.2176473 6.4543864 L 7.5633626 6.4543864 L 7.5633626 3.7434407 C 7.5633626 2.8196237 7.0107204 2.2412069 6.1128052 2.2412069 C 5.5800795 2.2412069 5.0733377 2.4604672 4.6710327 2.8354858 L 4.6710327 0.073897298 L 4.3341024 0.073897298 z M 44.300138 0.56585693 C 44.127464 0.56585693 44.015401 0.67843471 44.015401 0.85111084 C 44.015401 1.023787 44.127464 1.135848 44.300138 1.135848 C 44.472814 1.135848 44.584875 1.023787 44.584875 0.85111084 C 44.584875 0.67843471 44.472814 0.56585693 44.300138 0.56585693 z M 1.9425171 2.2412069 C 0.75968632 2.2412069 0 3.0957503 0 4.4426229 C 0 5.7463265 0.69093216 6.540686 1.813326 6.540686 C 2.2536502 6.540686 2.7114596 6.4197505 3.065446 6.2125407 L 2.9874145 5.970695 C 2.6161607 6.1606378 2.2275594 6.2642171 1.8908407 6.2642171 C 0.94975662 6.2642171 0.35398356 5.5303052 0.35398356 4.3733765 C 0.35398356 3.2164476 0.94136208 2.5517822 1.9342489 2.5517822 C 2.2968684 2.5517822 2.650545 2.638005 2.9786295 2.8106811 L 3.0737142 2.534729 C 2.7110949 2.3361517 2.3396718 2.2412069 1.9425171 2.2412069 z M 14.119035 2.2412069 C 12.979377 2.2412069 12.211141 3.1130835 12.211141 4.4167847 C 12.211141 5.694584 12.953236 6.540686 14.075627 6.540686 C 15.206652 6.540686 15.966467 5.6688099 15.966467 4.3651082 C 15.966467 3.0786763 15.232793 2.2412069 14.119035 2.2412069 z M 18.890837 2.2412069 C 18.343852 2.2412069 17.837063 2.4526137 17.456299 2.8034464 L 17.388603 2.3099365 L 17.129704 2.3099365 L 17.129704 6.4543864 L 17.474902 6.4543864 L 17.474902 3.0985189 C 17.79027 2.7669487 18.293452 2.5517822 18.813322 2.5517822 C 19.58173 2.5517822 20.013249 3.0011723 20.013249 3.7868489 L 20.013249 6.4543864 L 20.358964 6.4543864 L 20.358964 3.7434407 C 20.358964 2.8196237 19.814653 2.2412069 18.890837 2.2412069 z M 23.587707 2.2412069 C 22.448048 2.2412069 21.679814 3.1130808 21.679814 4.4167847 C 21.679814 5.694588 22.421909 6.540686 23.544299 6.540686 C 24.675328 6.540686 25.435657 5.6688119 25.435657 4.3651082 C 25.435657 3.0786725 24.701472 2.2412069 23.587707 2.2412069 z M 28.5781 2.2412069 C 28.05807 2.2412069 27.557628 2.4423883 27.162166 2.7874267 L 27.09292 2.3099365 L 26.834021 2.3099365 L 26.834021 6.4543864 L 27.179736 6.4543864 L 27.179736 3.0690633 C 27.540216 2.7445055 28.005081 2.5517822 28.483016 2.5517822 C 29.216891 2.5517822 29.648836 3.0011723 29.648836 3.7868489 L 29.648836 6.4543864 L 29.994035 6.4543864 L 29.994035 3.7434407 C 29.994035 3.5305273 29.961992 3.339689 29.908252 3.1677653 C 30.276741 2.7803678 30.78132 2.5517822 31.297314 2.5517822 C 32.031189 2.5517822 32.463135 3.0011723 32.463135 3.7868489 L 32.463135 6.4543864 L 32.80885 6.4543864 L 32.80885 3.7434407 C 32.80885 2.8023562 32.256145 2.2412069 31.384131 2.2412069 C 30.799614 2.2412069 30.234146 2.5036981 29.814718 2.942456 C 29.587335 2.4960554 29.154565 2.2412069 28.5781 2.2412069 z M 41.010933 2.2412069 C 40.46395 2.2412069 39.957156 2.4526137 39.576396 2.8034464 L 39.508183 2.3099365 L 39.249284 2.3099365 L 39.249284 6.4543864 L 39.594999 6.4543864 L 39.594999 3.0985189 C 39.910365 2.7669487 40.413031 2.5517822 40.932902 2.5517822 C 41.70131 2.5517822 42.132829 3.0011723 42.132829 3.7868489 L 42.132829 6.4543864 L 42.478544 6.4543864 L 42.478544 3.7434407 C 42.478544 2.8196237 41.934753 2.2412069 41.010933 2.2412069 z M 47.805867 2.2412069 C 46.623035 2.2412069 45.862834 3.0957503 45.862834 4.4426229 C 45.862834 5.7463265 46.553759 6.540686 47.67616 6.540686 C 48.116476 6.540686 48.573779 6.4197505 48.927763 6.2125407 L 48.850248 5.970695 C 48.478993 6.1606378 48.090396 6.2642171 47.753674 6.2642171 C 46.812591 6.2642171 46.216817 5.5303052 46.216817 4.3733765 C 46.216817 3.2164476 46.803679 2.5517822 47.796566 2.5517822 C 48.159185 2.5517822 48.513376 2.638005 48.841463 2.8106811 L 48.936548 2.534729 C 48.573931 2.3361517 48.20302 2.2412069 47.805867 2.2412069 z M 51.457324 2.2412069 C 50.973828 2.2412069 50.430401 2.3879163 49.981445 2.6210286 L 50.067745 2.8711426 C 50.482169 2.6725659 50.948483 2.5517822 51.371541 2.5517822 C 52.148584 2.5517822 52.562683 2.9402579 52.562683 3.7000325 L 52.562683 4.1341146 C 50.69304 4.1466446 49.842952 4.5429315 49.842952 5.4094889 C 49.842952 6.0915602 50.369793 6.540686 51.181372 6.540686 C 51.74736 6.540686 52.23504 6.3168588 52.569401 5.9262532 L 52.657768 6.4543864 L 52.916666 6.4543864 L 52.916666 3.6741943 C 52.916666 2.759012 52.381137 2.2412069 51.457324 2.2412069 z M 10.783838 2.2928833 C 10.271035 2.2928833 9.8177109 2.5403416 9.5322347 2.9646769 L 9.4888265 2.3099365 L 9.2035726 2.3099365 L 9.2035726 6.4543864 L 9.5492879 6.4543864 L 9.5492879 3.2969564 C 9.8293665 2.8678019 10.271446 2.6122436 10.749215 2.6122436 C 10.895988 2.6122436 11.06014 2.6384661 11.198283 2.6902751 L 11.293367 2.3879679 C 11.146592 2.327528 10.965147 2.2928833 10.783838 2.2928833 z M 34.371545 2.3099365 L 34.371545 5.0208821 C 34.371545 5.9619672 34.941002 6.5236328 35.795748 6.5236328 C 36.29952 6.5236328 36.803027 6.3175113 37.204964 5.9779297 L 37.280928 6.4543864 L 37.531559 6.4543864 L 37.531559 2.3099365 L 37.185844 2.3099365 L 37.185844 5.6952596 C 36.822818 6.0216943 36.345691 6.2213257 35.890832 6.2213257 C 35.165593 6.2213257 34.716744 5.7636669 34.716744 4.9779907 L 34.716744 2.3099365 L 34.371545 2.3099365 z M 44.118754 2.3099365 L 44.118754 6.4543864 L 44.464469 6.4543864 L 44.464469 2.3099365 L 44.118754 2.3099365 z M 23.527246 2.5517822 C 24.468329 2.5517822 25.089941 3.2857571 25.089941 4.4167847 C 25.089941 5.5305442 24.48563 6.2388957 23.587707 6.2388957 C 22.646625 6.2388957 22.033797 5.4871363 22.033797 4.3733765 C 22.033797 3.2855182 22.61206 2.5517822 23.527246 2.5517822 z M 14.019816 2.5528157 L 14.019816 2.8091309 L 14.157275 2.8091309 L 14.157275 2.5548828 C 14.450322 2.5714488 14.709799 2.6620794 14.925704 2.8148153 L 14.825452 2.9884481 L 14.944307 3.0571777 L 15.035258 2.9000814 C 15.218257 3.0592506 15.36303 3.2691627 15.463139 3.5212321 L 15.18512 3.6819458 L 15.253849 3.8008016 L 15.510681 3.6524902 C 15.574871 3.8544363 15.612289 4.0799485 15.619718 4.3253174 L 15.394926 4.3253174 L 15.394926 4.4627767 L 15.620235 4.4627767 C 15.616435 4.7110333 15.582116 4.9385952 15.521016 5.141805 L 15.253849 4.9872925 L 15.18512 5.106665 L 15.476058 5.2746134 C 15.376438 5.5370222 15.228799 5.7530093 15.040942 5.9133341 L 14.937073 5.7329834 L 14.818217 5.801713 L 14.930872 5.9975667 C 14.713259 6.1471816 14.451268 6.2305824 14.157275 6.2373454 L 14.157275 5.9789632 L 14.019816 5.9789632 L 14.019816 6.2352783 C 13.729386 6.2185283 13.472747 6.1280605 13.259139 5.9758626 L 13.359391 5.801713 L 13.240535 5.7329834 L 13.150102 5.889563 C 12.966301 5.7286361 12.821175 5.5165054 12.721187 5.2632446 L 12.991972 5.106665 L 12.923242 4.9872925 L 12.674162 5.1314697 C 12.610442 4.9298689 12.573465 4.7053036 12.566158 4.4627767 L 12.782682 4.4627767 L 12.782682 4.3253174 L 12.565124 4.3253174 C 12.569024 4.0801974 12.6027 3.853815 12.66331 3.6504232 L 12.923242 3.8008016 L 12.991972 3.6819458 L 12.708268 3.5181315 C 12.805188 3.2602224 12.948935 3.0445536 13.133048 2.8835449 L 13.233301 3.0571777 L 13.35164 2.9884481 L 13.242086 2.797762 C 13.458354 2.645529 13.720519 2.5596337 14.019816 2.5528157 z M 14.042037 3.4628377 L 14.042037 4.139799 A 0.26014298 0.26014298 0 0 0 13.828613 4.3904297 A 0.26014298 0.26014298 0 0 0 14.088546 4.6508789 A 0.26014298 0.26014298 0 0 0 14.258044 4.5873169 L 15.041976 5.3707316 L 15.086934 5.3257731 L 14.300936 4.5397746 A 0.26014298 0.26014298 0 0 0 14.348995 4.3904297 A 0.26014298 0.26014298 0 0 0 14.135571 4.139799 L 14.135571 3.4628377 L 14.042037 3.4628377 z M 52.562683 4.3842285 L 52.562683 5.6254964 C 52.214181 6.020785 51.784197 6.2383789 51.284725 6.2383789 C 50.619916 6.2383789 50.188668 5.8931079 50.188668 5.3578125 C 50.188668 4.6880562 50.910098 4.3946677 52.562683 4.3842285 z " />
</svg>
